X:483
T: AUF EINEM BAUM EIN KUCKUK
N: E1739
O: Europa, Mitteleuropa, Deutschland, Bergisches Land, Barmen
R: Scherz -, Spiel - Lied, Pfaenderspiel, Vexierspiel
M: 2/4
L: 1/16
K: G
d4 | B2G2B2d2 | d2c2A4 |
G2GGG2G2 | G2GGA2FF | D4
d4 | B2G2B2d2 | d2c2A4 | G4

@@@ Tune index: 5167
